!!!ONB: MCCC : ILB0169_01 : Extracted Monophonic Melody
!!!COM: Beethoven, Ludwig van
!!!OPR: Piano Sonata No.8
!!!OMV: 1
!!!SCT: Op.13
!!!ODT: 1798///
**kern
*thru
*staff1
*Ipiano
*>I
*clefG2
*k[b-e-a-]
*c:
*met(c)
*M4/4
*MM40
=1
4c[
16.c]
32c
16.d
32e-
4e-
8d
8r
=2
4f[
16.f]
32f
16.g
32a-
4a-
8g
8r
=3
4cc[
16.cc]
32cc
16.dd
32ee-
4ee-
16dd
32r
32cc
16.dd
32ee-
=4
4ee-
8dd
8ee
8ff
8aa-[
32aa-]
96gg
96aa-
96bb-
96aa-
96gg
96ff
64ee-
64dd
64cc
64b-
96a-
96g
96f
96e-
96d
96f
96a-
96f
96d
=5
8e-
[8ee-
16.ee-]
32ee-
16.ff
32gg
8gg
16ff
32r
32f
16.f
32f
16.f
32f
=6
8f
[8ff
16.ff]
32ff
16.gg
32aa-
8aa-
16gg
32r
32g
16.a
32a
16.b-
32b-
=7
8a
[8aa
16.aa]
32aa
16.bb
32ccc
8ccc
16bb
16r
8r
16.bb
32ccc
=8
8ccc#
8ddd
8r
16.ddd
32eee-
8eee
4fff
8fff
=9
8fff[
32fff]
64eee-
64ddd
64fff
64eee-
64ddd
64ccc
16bb
16bb
16bb
16bb
8ccc
8r
4r
=10
8ccc[
32ccc]
64bb
64ccc
96ddd
96ccc
96bb-
96aa-
96gg
96bb-
16aa-
16aa-
16aa-
16aa-
16gg
16eee-[
96eee-]
96ddd
96ddd-
96ccc
96bb
96bb-
112aa
112aa-
112gg
112ff#
112ff
112ee
112ee-
128dd
128dd-
128cc
128b
128b-
128a
128a-
128g
128f#
128f
128e
128e-
128d
128d-
128c
128B
16.a-
32B
=11
*>A
*M2/2
*MM320
2.c
4e
=12
4f
4g
4a-
4b
=13
4cc
2cc
4ee
=14
4ff
4gg
4aa-
4bb
=15
2ccc
2gg
=16
2ee-
2dd
=17
[1cc
=18
2cc]
2b
=19
4cc
2c
4e
=20
4f
4g
4a-
4b
=21
4cc
2cc
4ee
=22
4ff
4gg
4aa-
4bb
=23
2ccc
2gg
=24
2ee-
2dd
=25
1cc
=26
1cc
=27
4b
4r
[2gg
=28
4gg]
4r
[2gg
=29
8gg]
8ff
8dd
8b
8g
8f
8d
8B
=30
8c
8e-
8c
8G
8F#
8c
8A-
8F#
=31
4G
4r
[2gg
=32
4gg]
4r
[2gg
=33
8gg]
8ff
8dd
8b
8g
8f
8d
8B
=34
8c
8e-
8c
8G
8F#
8c
8A-
8F#
=35
4G
4f#
4g
4cc
=36
4b
4ff#
4gg
4ccc
=37
4bb
4r
2r
=38
[1e-
=39
4e-]
4dd-
4cc
4gg
=40
4aa-
4ddd-
4ccc
4ddd-
=41
4ccc
4r
2r
=42
1g-
=43
4f
4ee-
4dd
4aa
=44
4bb-
4eee-
4ddd
4eee-
=45
4ddd
4r
2aa
=46
4bb-
4r
2ee-
=47
4dd
4r
2a
=48
4b-
4r
2e-
=49
4d
4A
4B-
4A
=50
4B-
4A
4B-
4A
=51
4r
4BB-
4E-
4F
=52
4G-
4b-
4ee-
4ff
=53
2.gg-
4ee-
=54
2.gg-
4ee-
=55
4dd
4BB-
4F
4G-
=56
4A-
4b-
4aa-
4gg-
=57
4gg-
4ff
4ff
4ee-
=58
4ee-
4dd
4cc
4dd
=59
4ee-
4BB-
4E-
4F
=60
4G-
4b-
4ee-
4ff
=61
2.gg-
4ee-
=62
2.gg-
4ee-
=63
4cc
4AA-
4E-
4F
=64
4G-
4a-
4gg-
4ff
=65
4ff
4ee-
4ee-
4dd-
=66
4dd-
4cc
4b-
4cc
=67
4dd-
4AA-
4D-
4E-
=68
4F
4a-
4dd-
4ee-
=69
2.ff
4dd-
=70
2.ff
4dd-
=71
4cc
4AA-
4E-
4F
=72
4G-
4a-
4gg-
4ff
=73
4ff
4ee-
4ee-
4dd-
=74
4dd-
4cc
4b-
4cc
=75
4dd-
4D-
4A-
4C-
=76
4BB-
4b-
4aa-
4gg-
=77
4gg-
4ff
4ff
4ee-
=78
4ee-
4dd
4cc
4dd
=79
4ee-
4E-
4B-
4D-
=80
4C
4cc
4bb-
4aa-
=81
4aa-
4gg
4gg
4ff
=82
4ff
4ee
4dd
4ee
=83
4gg
4ff
4ff
4ee-
=84
4ee-
4dd
4cc
4dd
=85
4ff
4ee-
4ee-
4dd
=86
4dd
4cc
4cc
4b
=87
4cc
4b-
4b-
4b-
=88
4cc
4b-
4b-
4b-
=89
8r
8e-
8g
8e-
8ee-
8e-
8g
8e-
=90
2ee-
2ee-
=91
8r
8e-
8g
8e-
8ee-
8e-
8g
8e-
=92
2ee-
2ee-
=93
8ee-
8e-
8a-
8e-
8ee
8e
8cc
8e
=94
8ff
8f
8cc
8f
8gg
8g
8cc
8g
=95
8aa-
8a-
8cc
8a-
8aa
8a
8cc
8a
=96
8bb-
8b-
8ff
8b-
8ccc
8cc
8ff
8cc
=97
8ddd-
8dd-
8ff
8dd-
8ddd
8dd
8ff
8dd
=98
8eee-
8ee-
8gg
8ee-
8bb
8b
8ee-
8b
=99
8r
8cc
8ee-
8cc
8ccc
8cc
8ee-
8cc
=100
8r
8f
8a-
8f
8dd
8f
8a-
8f
=101
8r
8e-
8g
8e-
8ee-
8e-
8g
8e-
=102
2ee-
2ee-
=103
8r
8e-
8g
8e-
8ee-
8e-
8g
8e-
=104
2ee-
2ee-
=105
8ee-
8e-
8a-
8e-
8ee
8e
8cc
8e
=106
8ff
8f
8cc
8f
8gg
8g
8cc
8g
=107
8aa-
8a-
8cc
8a-
8aa
8a
8cc
8a
=108
8bb-
8b-
8ff
8b-
8ccc
8cc
8ff
8cc
=109
8ddd-
8dd-
8ff
8dd-
8ddd
8dd
8ff
8dd
=110
8eee-
8ee-
8bb-
8ee-
8eee
8ee
8bb-
8ee
=111
8r
8aa-
8ccc
8aa-
8fff
8aa-
8ccc
8aa-
=112
8r
8ff
8aa-
8ff
8ddd
8ff
8aa-
8ff
=113
4gg
2eee-
8ddd
8eee-
=114
8fff
8eee-
8ddd
8ccc
8bb
8ccc
8ddd
8ccc
=115
8bb-
8aa-
8gg
8ff
8ee
8ff
8gg
8ff
=116
8ee-
8dd
8cc
8b-
8a
8b-
8cc
8a-
=117
4g
2eee-
8ddd
8eee-
=118
8fff
8eee-
8ddd
8ccc
8bb
8ccc
8ddd
8ccc
=119
8bb-
8aa-
8gg
8ff
8ee
8ff
8gg
8ff
=120
8ee-
8dd
8cc
8b-
8a
8b-
8cc
8b-
=121
4ee-
2e-
4g
=122
4a-
4b-
4cc
4dd
=123
4ee-
2ee-
4gg
=124
4aa-
4bb-
4ccc
4ddd
=125
1eee-
=126
1ee-
=127
1eee-
=128
1ee-
=129
1eee-
=130
1ee-
=131
*>A1
1ddd
=132
1d
=133
*>A
*M2/2
2.c
4e
=134
4f
4g
4a-
4b
=135
4cc
2cc
4ee
=136
4ff
4gg
4aa-
4bb
=137
2ccc
2gg
=138
2ee-
2dd
=139
[1cc
=140
2cc]
2b
=141
4cc
2c
4e
=142
4f
4g
4a-
4b
=143
4cc
2cc
4ee
=144
4ff
4gg
4aa-
4bb
=145
2ccc
2gg
=146
2ee-
2dd
=147
1cc
=148
1cc
=149
4b
4r
[2gg
=150
4gg]
4r
[2gg
=151
8gg]
8ff
8dd
8b
8g
8f
8d
8B
=152
8c
8e-
8c
8G
8F#
8c
8A-
8F#
=153
4G
4r
[2gg
=154
4gg]
4r
[2gg
=155
8gg]
8ff
8dd
8b
8g
8f
8d
8B
=156
8c
8e-
8c
8G
8F#
8c
8A-
8F#
=157
4G
4f#
4g
4cc
=158
4b
4ff#
4gg
4ccc
=159
4bb
4r
2r
=160
[1e-
=161
4e-]
4dd-
4cc
4gg
=162
4aa-
4ddd-
4ccc
4ddd-
=163
4ccc
4r
2r
=164
1g-
=165
4f
4ee-
4dd
4aa
=166
4bb-
4eee-
4ddd
4eee-
=167
4ddd
4r
2aa
=168
4bb-
4r
2ee-
=169
4dd
4r
2a
=170
4b-
4r
2e-
=171
4d
4A
4B-
4A
=172
4B-
4A
4B-
4A
=173
4r
4BB-
4E-
4F
=174
4G-
4b-
4ee-
4ff
=175
2.gg-
4ee-
=176
2.gg-
4ee-
=177
4dd
4BB-
4F
4G-
=178
4A-
4b-
4aa-
4gg-
=179
4gg-
4ff
4ff
4ee-
=180
4ee-
4dd
4cc
4dd
=181
4ee-
4BB-
4E-
4F
=182
4G-
4b-
4ee-
4ff
=183
2.gg-
4ee-
=184
2.gg-
4ee-
=185
4cc
4AA-
4E-
4F
=186
4G-
4a-
4gg-
4ff
=187
4ff
4ee-
4ee-
4dd-
=188
4dd-
4cc
4b-
4cc
=189
4dd-
4AA-
4D-
4E-
=190
4F
4a-
4dd-
4ee-
=191
2.ff
4dd-
=192
2.ff
4dd-
=193
4cc
4AA-
4E-
4F
=194
4G-
4a-
4gg-
4ff
=195
4ff
4ee-
4ee-
4dd-
=196
4dd-
4cc
4b-
4cc
=197
4dd-
4D-
4A-
4C-
=198
4BB-
4b-
4aa-
4gg-
=199
4gg-
4ff
4ff
4ee-
=200
4ee-
4dd
4cc
4dd
=201
4ee-
4E-
4B-
4D-
=202
4C
4cc
4bb-
4aa-
=203
4aa-
4gg
4gg
4ff
=204
4ff
4ee
4dd
4ee
=205
4gg
4ff
4ff
4ee-
=206
4ee-
4dd
4cc
4dd
=207
4ff
4ee-
4ee-
4dd
=208
4dd
4cc
4cc
4b
=209
4cc
4b-
4b-
4b-
=210
4cc
4b-
4b-
4b-
=211
8r
8e-
8g
8e-
8ee-
8e-
8g
8e-
=212
2ee-
2ee-
=213
8r
8e-
8g
8e-
8ee-
8e-
8g
8e-
=214
2ee-
2ee-
=215
8ee-
8e-
8a-
8e-
8ee
8e
8cc
8e
=216
8ff
8f
8cc
8f
8gg
8g
8cc
8g
=217
8aa-
8a-
8cc
8a-
8aa
8a
8cc
8a
=218
8bb-
8b-
8ff
8b-
8ccc
8cc
8ff
8cc
=219
8ddd-
8dd-
8ff
8dd-
8ddd
8dd
8ff
8dd
=220
8eee-
8ee-
8gg
8ee-
8bb
8b
8ee-
8b
=221
8r
8cc
8ee-
8cc
8ccc
8cc
8ee-
8cc
=222
8r
8f
8a-
8f
8dd
8f
8a-
8f
=223
8r
8e-
8g
8e-
8ee-
8e-
8g
8e-
=224
2ee-
2ee-
=225
8r
8e-
8g
8e-
8ee-
8e-
8g
8e-
=226
2ee-
2ee-
=227
8ee-
8e-
8a-
8e-
8ee
8e
8cc
8e
=228
8ff
8f
8cc
8f
8gg
8g
8cc
8g
=229
8aa-
8a-
8cc
8a-
8aa
8a
8cc
8a
=230
8bb-
8b-
8ff
8b-
8ccc
8cc
8ff
8cc
=231
8ddd-
8dd-
8ff
8dd-
8ddd
8dd
8ff
8dd
=232
8eee-
8ee-
8bb-
8ee-
8eee
8ee
8bb-
8ee
=233
8r
8aa-
8ccc
8aa-
8fff
8aa-
8ccc
8aa-
=234
8r
8ff
8aa-
8ff
8ddd
8ff
8aa-
8ff
=235
4gg
2eee-
8ddd
8eee-
=236
8fff
8eee-
8ddd
8ccc
8bb
8ccc
8ddd
8ccc
=237
8bb-
8aa-
8gg
8ff
8ee
8ff
8gg
8ff
=238
8ee-
8dd
8cc
8b-
8a
8b-
8cc
8a-
=239
4g
2eee-
8ddd
8eee-
=240
8fff
8eee-
8ddd
8ccc
8bb
8ccc
8ddd
8ccc
=241
8bb-
8aa-
8gg
8ff
8ee
8ff
8gg
8ff
=242
8ee-
8dd
8cc
8b-
8a
8b-
8cc
8b-
=243
4ee-
2e-
4g
=244
4a-
4b-
4cc
4dd
=245
4ee-
2ee-
4gg
=246
4aa-
4bb-
4ccc
4ddd
=247
1eee-
=248
1ee-
=249
1eee-
=250
1ee-
=251
1eee-
=252
1ee-
=253
*>A2
1ddd
=254
1d
=255
*>B
*M4/4
*MM40
4g[
16.g]
32g
16.a
32b-
4b-
8a
8r
=256
4cc[
16.cc]
32cc
16.dd
32ee-
4ee-
8dd
8r
=257
4cc[
16.cc]
32cc
16.dd
32dd#
4dd#
4ee
=258
4a
4g
4f#
4d#
=259
*k[]
*M2/2
*MM320
4e
4a
4g
4dd#
=260
4ee
4aa
4gg
4ddd#
=261
4eee
4r
4ee
4r
=262
4r
4ee
4ff#
4gg
=263
2gg
4ff#
4r
=264
4r
4ff#
4gg
4aa
=265
4aa
4g
4f#
4cc#
=266
4dd
4gg
4ff#
4ccc#
=267
4ddd
4r
4ff#
4r
=268
4r
4ff#
4gg
4aa
=269
2aa
4gg
4r
=270
4r
4gg
4aa
4bb-
=271
8b-
8bb-
8b-
8bb-
8b-
8bb-
8b-
8bb-
=272
8b-
8bb-
8b-
8bb-
8b-
8bb-
8b-
8bb-
=273
8b-
8bb-
8b-
8bb-
8b-
8bb-
8b-
8bb-
=274
8b-
8bb-
8b-
8bb-
8b-
8bb-
8b-
8bb-
=275
8a
8aa
8a
8aa
8a
8aa
8a
8aa
=276
8a
8aa
8a
8aa
8a
8aa
8a
8aa
=277
8a
8aa
8a
8aa
8a
8aa
8a
8aa
=278
8a
8aa
8a
8aa
8a
8aa
8a
8aa
=279
8a-
8aa-
8a-
8aa-
8a-
8aa-
8a-
8aa-
=280
8a-
8aa-
8a-
8aa-
8a-
8aa-
8a-
8aa-
=281
8a-
8aa-
8a-
8aa-
8a-
8aa-
8a-
8aa-
=282
8a-
8aa-
8g
8gg
8g
8gg
8f
8ff
=283
8f
8ff
8e
8ee
8e
8ee
8d-
8dd-
=284
8d-
8dd-
8c
8cc
8c
8cc
8B-
8b-
=285
8B-
8b-
8A-
8a-
8A-
8a-
8G
8g
=286
8G
8g
8F
8f
8F
8f
8E-
8e-
=287
8E-
8e-
8D
8d
8D
8d
8E-
8e-
=288
8E-
8e-
8D
8d
8D
8d
8C
8c
=289
4B
4r
8C#
8A-
8E
8C#
=290
8D
8A-
8F
8D
8C
8A-
8E-
8C
=291
8BB
8G
8D
8BB
8C#
8A-
8E
8C#
=292
8D
8A-
8F
8D
8C
8A-
8E-
8C
=293
4G
4e
4f
4cc#
=294
4dd
4ee
4ff
4ccc#
=295
4ddd
4eee
[2fff
=296
2fff]
2eee-
=297
4ddd
4r
8C#
8A-
8E
8C#
=298
8D
8A-
8F
8D
8C
8A-
8E-
8C
=299
8BB
8G
8D
8BB
8C#
8A-
8E
8C#
=300
8D
8A-
8F
8D
8C
8A-
8E-
8C
=301
4G
4e
4f
4cc#
=302
4dd
4ee
4ff
4ccc#
=303
4ddd
4eee
[2fff
=304
2fff]
2eee-
=305
4ddd
4eee
[2fff
=306
2fff]
2eee-
=307
4ddd
4eee
[2fff
=308
2fff]
2eee-
=309
8ddd
8fff
8ddd
8ccc
8bb
8fff
8ddd
8ccc
=310
8bb
8fff
8ddd
8ccc
8bb
8ddd
8bb
8gg
=311
8aa-
8bb-
8aa-
8gg
8ff
8aa-
8ff
8ee-
=312
8dd
8ff
8dd
8cc
8b
8dd
8b
8g
=313
8a-
8b-
8a-
8g
8f
8a-
8f
8e-
=314
8d
8f
8d
8c
8B
8d
8B
8G
=315
8A-
8B-
8A-
8G
8F
8E-
8D
8C
=316
8BB
8C
8BB
8AA-
2r
*k[b-e-a-]
=317
2.c
4e
=318
4f
4g
4a-
4b
=319
4cc
2cc
4ee
=320
4ff
4gg
4aa-
4bb
=321
2ccc
2gg
=322
2ee-
2dd
=323
[1cc
=324
2cc]
2b
=325
4cc
2c
4e
=326
4f
4g
4a-
4b
=327
4cc
2cc
4ee
=328
4ff
4gg
4aa-
4bb
=329
2ccc
2aa-
=330
2ff
2ee-
=331
2dd-
2b-
=332
1a-
=333
2b-
2bb-
=334
2gg-
2ff
=335
2ee-
2cc-
=336
1b-
=337
2cc
2ccc
=338
2aa-
2gg
=339
2ff
2dd-
=340
2cc
2b
=341
4cc
4B
4c
4B
=342
4c
4B
4c
4B
=343
4r
4C
4F
4G
=344
4A-
4cc
4ff
4gg
=345
2.aa-
4ff
=346
2.aa-
4ff
=347
4ee
4C
4G
4A-
=348
4B-
4cc
4bb-
4aa-
=349
4aa-
4gg
4gg
4ff
=350
4ff
4ee
4dd
4ee
=351
4ff
4C
4F
4G
=352
4A-
4cc
4ff
4aa-
=353
2.ccc
4ff
=354
2.fff
4ccc
=355
4bb
4GG
4D
4E-
=356
4F
4g
4ff
4ee-
=357
4ee-
4dd
4dd
4cc
=358
4cc
4b
4a
4b
=359
4cc
4GG
4C
4D
=360
4E-
4gg
4ccc
4ddd
=361
2.eee-
4ccc
=362
2.eee-
4ccc
=363
4bb
4GG
4D
4E-
=364
4F
4gg
4fff
4eee-
=365
4eee-
4ddd
4ddd
4ccc
=366
4ccc
4bb
4aa
4bb
=367
4ddd
4ccc
4ccc
4bb-
=368
4bb-
4aa
4gg
4aa
=369
4ccc
4bb-
4bb-
4aa-
=370
4aa-
4gg
4ff
4gg
=371
4bb-
4aa-
4aa-
4gg
=372
4gg
4ff#
4ff#
4ff#
=373
4aa-
4gg
4gg
4gg
=374
4aa-
4gg
4gg
4gg
=375
8r
8c
8e-
8c
8cc
8c
8e-
8c
=376
2cc
2cc
=377
8r
8d-
8e
8d-
8dd-
8d-
8e
8d-
=378
2dd-
8dd-
8d-
8e
8d-
=379
8cc
8c
8f
8c
8ee
8e
8cc
8e
=380
8ff
8f
8cc
8f
8gg
8g
8cc
8g
=381
8aa-
8a-
8cc
8a-
8aa
8a
8cc
8a
=382
8bb
8b
8ff
8b
8ccc
8cc
8ff
8cc
=383
8ddd
8dd
8ff
8dd
8eee
8ee
8gg
8ee
=384
8fff
8ff
8aa-
8ff
8ddd
8ff
8aa-
8ff
=385
8r
8ee-
8gg
8ee-
8ccc
8ee-
8gg
8ee-
=386
8r
8dd
8ff
8dd
8bb
8dd
8ff
8dd
=387
8r
8c
8e-
8c
8cc
8c
8e-
8c
=388
2cc
2cc
=389
8r
8d-
8e
8d-
8dd-
8d-
8e
8d-
=390
2dd-
8dd-
8d-
8e
8d-
=391
8cc
8c
8f
8c
8ee
8e
8cc
8e
=392
8ff
8f
8cc
8f
8gg
8g
8cc
8g
=393
8aa-
8a-
8cc
8a-
8aa
8a
8cc
8a
=394
8bb
8b
8ff
8b
8ccc
8cc
8ff
8cc
=395
8ddd
8dd
8ff
8dd
8eee
8ee
8gg
8ee
=396
8fff
8ff
8aa-
8ff
8ddd
8ff
8aa-
8ff
=397
8r
8ee-
8gg
8ee-
8ccc
8ee-
8gg
8ee-
=398
8r
8dd
8ff
8dd
8bb
8dd
8ff
8dd
=399
4cc
2ccc
8bb
8ccc
=400
8ddd
8ccc
8bb-
8aa-
8gg
8aa-
8bb-
8aa-
=401
8gg
8ff
8ee-
8dd
8cc#
8dd
8ee-
8dd
=402
8cc
8b
8a-
8g
8f#
8g
8a-
8f
=403
4e-
2ccc
8bb
8ccc
=404
8ddd
8ccc
8bb-
8aa-
8gg
8aa-
8bb-
8aa-
=405
8gg
8ff
8ee-
8dd
8cc#
8dd
8ee-
8dd
=406
8cc
8b
8a-
8g
8f#
8g
8a-
8g
=407
4cc
2c
4e
=408
4f
4g
4a-
4b
=409
4cc
2cc
4ee
=410
4ff
4gg
4aa-
4bb
=411
1ccc
=412
1cc
=413
1ccc
=414
1cc
=415
1eee-
=416
1e-
=417
*M4/4
*MM40
4r
16.r
32cc
16.dd
32ee-
4ee-
8dd
8r
=418
4r
16.r
32ff
16.gg
32aa-
4aa-
8gg
8r
=419
4r
16.r
32bb-
16.ccc
32ddd-
4ddd-
8ccc
8bb-
=420
8aa-
8gg
8ff
8ee-
8r
8dd
8r
8r
=421
*M2/2
*MM320
2.c
4e
=422
4f
4g
4a-
4b
=423
4cc
2cc
4ee
=424
4ff
4gg
4aa-
4bb
=425
2ccc
2ccc
=426
2ccc
2ccc
=427
4eee-
4r
2r
=428
4ee-
4r
2r
=429
4gg
4r
2r
=430
4B
4r
2r
=431
4c
4r
2r
=432
1r
==
*-
